symbols/web/agriculture/materialsymbolsoutlined/agriculture_wght600gradN25_24px.svg

<svg xmlns="http://www.w3.org/2000/svg" height="24" width="24"><path d="M3.925 9.05q-.45 0-.737-.3Q2.9 8.45 2.9 8q0-.425.288-.725.287-.3.737-.3H6.9q.85 0 1.412.6.563.6.588 1.475ZM6 17.925q1.125 0 1.888-.762.762-.763.762-1.888 0-1.1-.762-1.875-.763-.775-1.888-.775-1.1 0-1.875.762-.775.763-.775 1.888 0 1.1.775 1.875.775.775 1.875.775Zm13.45.2q.6 0 1-.413.4-.412.4-.987 0-.6-.412-1-.413-.4-.988-.4-.6 0-1.012.412-.413.413-.413.988 0 .6.413 1 .412.4 1.012.4ZM6 16.525q-.5 0-.862-.363-.363-.362-.363-.887t.35-.888q.35-.362.875-.362t.888.362q.362.363.362.888t-.362.887q-.363.363-.888.363Zm13.875-3.5q.775.15 1.25.413.475.262 1.05.837V8.2q0-1.05-.737-1.788-.738-.737-1.788-.737h-5.9l-1-1.05L14.075 3.3l-.975-1-3.725 3.725 1 1 1.35-1.35 1 .975v2.375q0 .75-.512 1.3-.513.55-1.263.55H8.6q.8.45 1.212.887.413.438.813 1.188h.325q1.6 0 2.738-1.163 1.137-1.162 1.137-2.762v-1.05h5.05Zm-4.125 3.3q.15-.8.387-1.275.238-.475.813-1.05h-5.925q.15.675.163 1.162.012.488-.113 1.163Zm3.7 4.125q-1.55 0-2.638-1.088-1.087-1.087-1.087-2.637t1.087-2.638Q17.9 13 19.45 13q1.55 0 2.637 1.087 1.088 1.088 1.088 2.638 0 1.55-1.1 2.637-1.1 1.088-2.625 1.088ZM6 20.45q-2.15 0-3.663-1.512Q.825 17.425.825 15.275t1.512-3.662Q3.85 10.1 6 10.1t3.663 1.513q1.512 1.512 1.512 3.662t-1.512 3.663Q8.15 20.45 6 20.45Zm9.75-9.475Z"/></svg>

<svg xmlns="http://www.w3.org/2000/svg" height="24" width="24"><path d="M3.925 9.05Q3.475 9.05 3.188 8.75Q2.9 8.45 2.9 8Q2.9 7.575 3.188 7.275Q3.475 6.975 3.925 6.975H6.9Q7.75 6.975 8.312 7.575Q8.875 8.175 8.9 9.05ZM6 17.925Q7.125 17.925 7.888 17.163Q8.65 16.4 8.65 15.275Q8.65 14.175 7.888 13.4Q7.125 12.625 6 12.625Q4.9 12.625 4.125 13.387Q3.35 14.15 3.35 15.275Q3.35 16.375 4.125 17.15Q4.9 17.925 6 17.925ZM19.45 18.125Q20.05 18.125 20.45 17.712Q20.85 17.3 20.85 16.725Q20.85 16.125 20.438 15.725Q20.025 15.325 19.45 15.325Q18.85 15.325 18.438 15.737Q18.025 16.15 18.025 16.725Q18.025 17.325 18.438 17.725Q18.85 18.125 19.45 18.125ZM6 16.525Q5.5 16.525 5.138 16.162Q4.775 15.8 4.775 15.275Q4.775 14.75 5.125 14.387Q5.475 14.025 6 14.025Q6.525 14.025 6.888 14.387Q7.25 14.75 7.25 15.275Q7.25 15.8 6.888 16.162Q6.525 16.525 6 16.525ZM19.875 13.025Q20.65 13.175 21.125 13.438Q21.6 13.7 22.175 14.275V8.2Q22.175 7.15 21.438 6.412Q20.7 5.675 19.65 5.675H13.75L12.75 4.625L14.075 3.3L13.1 2.3L9.375 6.025L10.375 7.025L11.725 5.675L12.725 6.65V9.025Q12.725 9.775 12.213 10.325Q11.7 10.875 10.95 10.875H8.6Q9.4 11.325 9.812 11.762Q10.225 12.2 10.625 12.95H10.95Q12.55 12.95 13.688 11.787Q14.825 10.625 14.825 9.025V7.975H19.875Q19.875 7.975 19.875 7.975Q19.875 7.975 19.875 7.975ZM15.75 16.325Q15.9 15.525 16.137 15.05Q16.375 14.575 16.95 14H11.025Q11.175 14.675 11.188 15.162Q11.2 15.65 11.075 16.325ZM19.45 20.45Q17.9 20.45 16.812 19.362Q15.725 18.275 15.725 16.725Q15.725 15.175 16.812 14.087Q17.9 13 19.45 13Q21 13 22.087 14.087Q23.175 15.175 23.175 16.725Q23.175 18.275 22.075 19.362Q20.975 20.45 19.45 20.45ZM6 20.45Q3.85 20.45 2.337 18.938Q0.825 17.425 0.825 15.275Q0.825 13.125 2.337 11.613Q3.85 10.1 6 10.1Q8.15 10.1 9.663 11.613Q11.175 13.125 11.175 15.275Q11.175 17.425 9.663 18.938Q8.15 20.45 6 20.45ZM15.75 10.975Q15.75 10.975 15.75 10.975Q15.75 10.975 15.75 10.975Q15.75 10.975 15.75 10.975Q15.75 10.975 15.75 10.975Q15.75 10.975 15.75 10.975Q15.75 10.975 15.75 10.975Q15.75 10.975 15.75 10.975Q15.75 10.975 15.75 10.975Z"/></svg>
